X:133
T:Lord Nelson’s Waltz. WM.133
M:3/8
L:1/16
Q:3/8=50
S:Wm.Mittell’s MS, New Romney,Kent,1799
R:.Waltz
O:England
A:Kent
Z:vmp.Chris Partington
K:C
(3G,A,B,|C2C2C2|CB,DB,G,2|C2C2C2|CB,DB,G,2|C2D2G2|c2e2g2|gfedcB|c4:|!
|:z2|e4g2|g4e2|a2a2f2|g2g2e2|c2e2g2|g2g2e2|f2d2B2|c4:|!
c2|c2A2_B2|c2d2e2|{g}f2e2d2|{d}c4c2|_B2B2c2|A2A2c2|_B2B2c2|A4c2|!
c2A2_B2|c2d2e2|{g}f2e2d2|{d}c4Ac|_B2B2 GB|A2A2 FA|”D Capo”_B2G2E2|F4|]
W:Minimum equalisation of bar ends

